packages/smooth_app/assets/app/splashscreen_branding.svg

<svg width="1800" height="640" viewBox="0 0 1800 640" fill="none" xmlns="http://www.w3.org/2000/svg">
<path d="M95.2383 422.3C77.4183 422.3 63.7783 417.24 54.3183 407.12C44.8583 397 40.1283 382.7 40.1283 364.22V242.78C40.1283 224.3 44.8583 210 54.3183 199.88C63.7783 189.76 77.4183 184.7 95.2383 184.7C113.058 184.7 126.698 189.76 136.158 199.88C145.618 210 150.348 224.3 150.348 242.78V364.22C150.348 382.7 145.618 397 136.158 407.12C126.698 417.24 113.058 422.3 95.2383 422.3ZM95.2383 389.3C107.778 389.3 114.048 381.71 114.048 366.53V240.47C114.048 225.29 107.778 217.7 95.2383 217.7C82.6983 217.7 76.4283 225.29 76.4283 240.47V366.53C76.4283 381.71 82.6983 389.3 95.2383 389.3ZM174.897 188H228.357C246.397 188 259.927 192.84 268.947 202.52C277.967 212.2 282.477 226.39 282.477 245.09V267.86C282.477 286.56 277.967 300.75 268.947 310.43C259.927 320.11 246.397 324.95 228.357 324.95H211.197V419H174.897V188ZM228.357 291.95C234.297 291.95 238.697 290.3 241.557 287C244.637 283.7 246.177 278.09 246.177 270.17V242.78C246.177 234.86 244.637 229.25 241.557 225.95C238.697 222.65 234.297 221 228.357 221H211.197V291.95H228.357ZM302.192 188H401.192V221H338.492V282.05H388.322V315.05H338.492V386H401.192V419H302.192V188ZM422.075 188H467.615L502.925 326.27H503.585V188H535.925V419H498.635L455.075 250.37H454.415V419H422.075V188ZM615.757 188H711.787V221H652.057V285.35H698.917V318.35H652.057V419H615.757V188ZM781.664 422.3C763.844 422.3 750.204 417.24 740.744 407.12C731.284 397 726.554 382.7 726.554 364.22V242.78C726.554 224.3 731.284 210 740.744 199.88C750.204 189.76 763.844 184.7 781.664 184.7C799.484 184.7 813.124 189.76 822.584 199.88C832.044 210 836.774 224.3 836.774 242.78V364.22C836.774 382.7 832.044 397 822.584 407.12C813.124 417.24 799.484 422.3 781.664 422.3ZM781.664 389.3C794.204 389.3 800.474 381.71 800.474 366.53V240.47C800.474 225.29 794.204 217.7 781.664 217.7C769.124 217.7 762.854 225.29 762.854 240.47V366.53C762.854 381.71 769.124 389.3 781.664 389.3ZM913.793 422.3C895.973 422.3 882.333 417.24 872.873 407.12C863.413 397 858.683 382.7 858.683 364.22V242.78C858.683 224.3 863.413 210 872.873 199.88C882.333 189.76 895.973 184.7 913.793 184.7C931.613 184.7 945.253 189.76 954.713 199.88C964.173 210 968.903 224.3 968.903 242.78V364.22C968.903 382.7 964.173 397 954.713 407.12C945.253 417.24 931.613 422.3 913.793 422.3ZM913.793 389.3C926.333 389.3 932.603 381.71 932.603 366.53V240.47C932.603 225.29 926.333 217.7 913.793 217.7C901.253 217.7 894.983 225.29 894.983 240.47V366.53C894.983 381.71 901.253 389.3 913.793 389.3ZM993.452 188H1048.89C1066.93 188 1080.46 192.84 1089.48 202.52C1098.5 212.2 1103.01 226.39 1103.01 245.09V361.91C1103.01 380.61 1098.5 394.8 1089.48 404.48C1080.46 414.16 1066.93 419 1048.89 419H993.452V188ZM1048.23 386C1054.17 386 1058.68 384.24 1061.76 380.72C1065.06 377.2 1066.71 371.48 1066.71 363.56V243.44C1066.71 235.52 1065.06 229.8 1061.76 226.28C1058.68 222.76 1054.17 221 1048.23 221H1029.75V386H1048.23ZM1180.37 188H1276.4V221H1216.67V285.35H1263.53V318.35H1216.67V419H1180.37V188ZM1311.22 188H1360.39L1398.01 419H1361.71L1355.11 373.13V373.79H1313.86L1307.26 419H1273.6L1311.22 188ZM1350.82 342.44L1334.65 228.26H1333.99L1318.15 342.44H1350.82ZM1466.13 422.3C1448.75 422.3 1435.44 417.35 1426.2 407.45C1417.18 397.55 1412.67 383.58 1412.67 365.54V241.46C1412.67 223.42 1417.18 209.45 1426.2 199.55C1435.44 189.65 1448.75 184.7 1466.13 184.7C1483.51 184.7 1496.71 189.65 1505.73 199.55C1514.97 209.45 1519.59 223.42 1519.59 241.46V265.88H1485.27V239.15C1485.27 224.85 1479.22 217.7 1467.12 217.7C1455.02 217.7 1448.97 224.85 1448.97 239.15V368.18C1448.97 382.26 1455.02 389.3 1467.12 389.3C1479.22 389.3 1485.27 382.26 1485.27 368.18V332.87H1519.59V365.54C1519.59 383.58 1514.97 397.55 1505.73 407.45C1496.71 417.35 1483.51 422.3 1466.13 422.3ZM1569.68 221H1531.73V188H1643.93V221H1605.98V419H1569.68V221ZM1708.7 422.3C1691.1 422.3 1677.79 417.35 1668.77 407.45C1659.75 397.33 1655.24 382.92 1655.24 364.22V351.02H1689.56V366.86C1689.56 381.82 1695.83 389.3 1708.37 389.3C1714.53 389.3 1719.15 387.54 1722.23 384.02C1725.53 380.28 1727.18 374.34 1727.18 366.2C1727.18 356.52 1724.98 348.05 1720.58 340.79C1716.18 333.31 1708.04 324.4 1696.16 314.06C1681.2 300.86 1670.75 288.98 1664.81 278.42C1658.87 267.64 1655.9 255.54 1655.9 242.12C1655.9 223.86 1660.52 209.78 1669.76 199.88C1679 189.76 1692.42 184.7 1710.02 184.7C1727.4 184.7 1740.49 189.76 1749.29 199.88C1758.31 209.78 1762.82 224.08 1762.82 242.78V252.35H1728.5V240.47C1728.5 232.55 1726.96 226.83 1723.88 223.31C1720.8 219.57 1716.29 217.7 1710.35 217.7C1698.25 217.7 1692.2 225.07 1692.2 239.81C1692.2 248.17 1694.4 255.98 1698.8 263.24C1703.42 270.5 1711.67 279.3 1723.55 289.64C1738.73 302.84 1749.18 314.83 1754.9 325.61C1760.62 336.39 1763.48 349.04 1763.48 363.56C1763.48 382.48 1758.75 397 1749.29 407.12C1740.05 417.24 1726.52 422.3 1708.7 422.3Z" fill="#333333"/>
</svg>

<svg width="1800" height="640" fill="none" xmlns="http://www.w3.org/2000/svg"><path d="M95.238 422.3c-17.82 0-31.46-5.06-40.92-15.18-9.46-10.12-14.19-24.42-14.19-42.9V242.78c0-18.48 4.73-32.78 14.19-42.9 9.46-10.12 23.1-15.18 40.92-15.18s31.46 5.06 40.92 15.18c9.46 10.12 14.19 24.42 14.19 42.9v121.44c0 18.48-4.73 32.78-14.19 42.9-9.46 10.12-23.1 15.18-40.92 15.18Zm0-33c12.54 0 18.81-7.59 18.81-22.77V240.47c0-15.18-6.27-22.77-18.81-22.77s-18.81 7.59-18.81 22.77v126.06c0 15.18 6.27 22.77 18.81 22.77ZM174.897 188h53.46c18.04 0 31.57 4.84 40.59 14.52 9.02 9.68 13.53 23.87 13.53 42.57v22.77c0 18.7-4.51 32.89-13.53 42.57s-22.55 14.52-40.59 14.52h-17.16V419h-36.3V188Zm53.46 103.95c5.94 0 10.34-1.65 13.2-4.95 3.08-3.3 4.62-8.91 4.62-16.83v-27.39c0-7.92-1.54-13.53-4.62-16.83-2.86-3.3-7.26-4.95-13.2-4.95h-17.16v70.95h17.16ZM302.192 188h99v33h-62.7v61.05h49.83v33h-49.83V386h62.7v33h-99V188Zm119.883 0h45.54l35.31 138.27h.66V188h32.34v231h-37.29l-43.56-168.63h-.66V419h-32.34V188Zm193.682 0h96.03v33h-59.73v64.35h46.86v33h-46.86V419h-36.3V188Zm165.907 234.3c-17.82 0-31.46-5.06-40.92-15.18-9.46-10.12-14.19-24.42-14.19-42.9V242.78c0-18.48 4.73-32.78 14.19-42.9 9.46-10.12 23.1-15.18 40.92-15.18s31.46 5.06 40.92 15.18c9.46 10.12 14.19 24.42 14.19 42.9v121.44c0 18.48-4.73 32.78-14.19 42.9-9.46 10.12-23.1 15.18-40.92 15.18Zm0-33c12.54 0 18.81-7.59 18.81-22.77V240.47c0-15.18-6.27-22.77-18.81-22.77s-18.81 7.59-18.81 22.77v126.06c0 15.18 6.27 22.77 18.81 22.77Zm132.129 33c-17.82 0-31.46-5.06-40.92-15.18-9.46-10.12-14.19-24.42-14.19-42.9V242.78c0-18.48 4.73-32.78 14.19-42.9 9.46-10.12 23.1-15.18 40.92-15.18s31.46 5.06 40.92 15.18c9.46 10.12 14.19 24.42 14.19 42.9v121.44c0 18.48-4.73 32.78-14.19 42.9-9.46 10.12-23.1 15.18-40.92 15.18Zm0-33c12.54 0 18.81-7.59 18.81-22.77V240.47c0-15.18-6.27-22.77-18.81-22.77s-18.81 7.59-18.81 22.77v126.06c0 15.18 6.27 22.77 18.81 22.77ZM993.452 188h55.438c18.04 0 31.57 4.84 40.59 14.52 9.02 9.68 13.53 23.87 13.53 42.57v116.82c0 18.7-4.51 32.89-13.53 42.57S1066.93 419 1048.89 419h-55.438V188Zm54.778 198c5.94 0 10.45-1.76 13.53-5.28 3.3-3.52 4.95-9.24 4.95-17.16V243.44c0-7.92-1.65-13.64-4.95-17.16-3.08-3.52-7.59-5.28-13.53-5.28h-18.48v165h18.48Zm132.14-198h96.03v33h-59.73v64.35h46.86v33h-46.86V419h-36.3V188Zm130.85 0h49.17l37.62 231h-36.3l-6.6-45.87v.66h-41.25l-6.6 45.21h-33.66l37.62-231Zm39.6 154.44-16.17-114.18h-.66l-15.84 114.18h32.67Zm115.31 79.86c-17.38 0-30.69-4.95-39.93-14.85-9.02-9.9-13.53-23.87-13.53-41.91V241.46c0-18.04 4.51-32.01 13.53-41.91 9.24-9.9 22.55-14.85 39.93-14.85s30.58 4.95 39.6 14.85c9.24 9.9 13.86 23.87 13.86 41.91v24.42h-34.32v-26.73c0-14.3-6.05-21.45-18.15-21.45-12.1 0-18.15 7.15-18.15 21.45v129.03c0 14.08 6.05 21.12 18.15 21.12 12.1 0 18.15-7.04 18.15-21.12v-35.31h34.32v32.67c0 18.04-4.62 32.01-13.86 41.91-9.02 9.9-22.22 14.85-39.6 14.85ZM1569.68 221h-37.95v-33h112.2v33h-37.95v198h-36.3V221Zm139.02 201.3c-17.6 0-30.91-4.95-39.93-14.85-9.02-10.12-13.53-24.53-13.53-43.23v-13.2h34.32v15.84c0 14.96 6.27 22.44 18.81 22.44 6.16 0 10.78-1.76 13.86-5.28 3.3-3.74 4.95-9.68 4.95-17.82 0-9.68-2.2-18.15-6.6-25.41-4.4-7.48-12.54-16.39-24.42-26.73-14.96-13.2-25.41-25.08-31.35-35.64-5.94-10.78-8.91-22.88-8.91-36.3 0-18.26 4.62-32.34 13.86-42.24 9.24-10.12 22.66-15.18 40.26-15.18 17.38 0 30.47 5.06 39.27 15.18 9.02 9.9 13.53 24.2 13.53 42.9v9.57h-34.32v-11.88c0-7.92-1.54-13.64-4.62-17.16-3.08-3.74-7.59-5.61-13.53-5.61-12.1 0-18.15 7.37-18.15 22.11 0 8.36 2.2 16.17 6.6 23.43 4.62 7.26 12.87 16.06 24.75 26.4 15.18 13.2 25.63 25.19 31.35 35.97 5.72 10.78 8.58 23.43 8.58 37.95 0 18.92-4.73 33.44-14.19 43.56-9.24 10.12-22.77 15.18-40.59 15.18Z" fill="#333"/></svg>
